**kern
*clefF4
*k[b-e-a-]
*M4/4
=1-
16C
4D
2r
8D
16D
=2
2D
16C 16AA-
4C
8C
16D
=3
16C
2r
(4BB-
16AA#)
16r
(16BB-
=4
16AA-)
2.r
8GG
16FF 16DD 16BBB-
=5
2.EE-
4r
=6
4FF
4GG
2GG
=7
4GG
4GG
4GG
8FF
16GG#
16AA-
=8
8BB-
(16BB-
16C-)
4BB-
8BB- 8GG 8EE-
8BB-
8C- 8AA- 8FF
8D 8BB# 8GG
=9
8C
4C
16D
16D
2E-
=10
1E-
=11
*-